img/svg/icon12.svg

<svg xmlns="http://www.w3.org/2000/svg" preserveAspectRatio="xMidYMid" width="48" height="44" viewBox="0 0 48 44"><defs><style>.cls-2 { fill: #000000; stroke: #ff4700; stroke-linejoin: round; stroke-width: 1px; opacity: 0.8; fill-opacity: 0; }</style></defs><path d="M8.976 13.777c-3.563 2.465-6.488 5.782-8.476 9.656 4.366 8.509 13.25 14.334 23.5 14.334 2.872 0 5.636-.458 8.224-1.303l-3.578-3.492c-1.517.327-3.074.495-4.646.495-4.111 0-8.117-1.142-11.587-3.301-2.761-1.72-5.101-4.022-6.859-6.733 1.701-2.623 3.948-4.862 6.593-6.561l-3.171-3.095zm15.024 17.988c1.043 0 2.054-.134 3.017-.383l-14.375-14.027c-.255.939-.392 1.925-.392 2.943 0 6.333 5.261 11.467 11.75 11.467zm-20.562-31.265h2.466l10.08 9.837c2.528-.803 5.221-1.237 8.016-1.237 10.25 0 19.134 5.825 23.5 14.333-1.958 3.816-4.825 7.091-8.317 9.544l8.317 8.116v2.407h-2.466l-41.596-40.593v-2.407zm39.008 22.933c-1.758-2.711-4.098-5.013-6.859-6.732l-.544-.327c.457 1.224.707 2.546.707 3.924 0 2.621-.902 5.037-2.419 6.968l2.688 2.622c2.573-1.686 4.762-3.886 6.427-6.455z" id="path-1" class="cls-2" fill-rule="evenodd"/></svg>

<svg xmlns="http://www.w3.org/2000/svg" xmlns:xlink="http://www.w3.org/1999/xlink" preserveAspectRatio="xMidYMid" width="48" height="44" viewBox="0 0 48 44">
  <defs>
    <style>

      .cls-2 {
        fill: #000000;
        stroke: #ff4700;
        stroke-linejoin: round;
        stroke-width: 1px;
        opacity: 0.8;
        fill-opacity: 0;
      }
    </style>
  </defs>
  <path d="M8.976,13.777 C5.413,16.242 2.488,19.559 0.500,23.433 C4.866,31.942 13.750,37.767 24.000,37.767 C26.872,37.767 29.636,37.309 32.224,36.464 C32.224,36.464 28.646,32.972 28.646,32.972 C27.129,33.299 25.572,33.467 24.000,33.467 C19.889,33.467 15.883,32.325 12.413,30.166 C9.652,28.446 7.312,26.144 5.554,23.433 C7.255,20.810 9.502,18.571 12.147,16.872 C12.147,16.872 8.976,13.777 8.976,13.777 ZM24.000,31.765 C25.043,31.765 26.054,31.631 27.017,31.382 C27.017,31.382 12.642,17.355 12.642,17.355 C12.387,18.294 12.250,19.280 12.250,20.298 C12.250,26.631 17.511,31.765 24.000,31.765 ZM3.438,0.500 C3.438,0.500 5.904,0.500 5.904,0.500 C5.904,0.500 15.984,10.337 15.984,10.337 C18.512,9.534 21.205,9.100 24.000,9.100 C34.250,9.100 43.134,14.925 47.500,23.433 C45.542,27.249 42.675,30.524 39.183,32.977 C39.183,32.977 47.500,41.093 47.500,41.093 C47.500,41.093 47.500,43.500 47.500,43.500 C47.500,43.500 45.034,43.500 45.034,43.500 C45.034,43.500 3.438,2.907 3.438,2.907 C3.438,2.907 3.438,0.500 3.438,0.500 ZM42.446,23.433 C40.688,20.722 38.348,18.420 35.587,16.701 C35.407,16.589 35.226,16.481 35.043,16.374 C35.500,17.598 35.750,18.920 35.750,20.298 C35.750,22.919 34.848,25.335 33.331,27.266 C33.331,27.266 36.019,29.888 36.019,29.888 C38.592,28.202 40.781,26.002 42.446,23.433 Z" id="path-1" class="cls-2" fill-rule="evenodd"/>
</svg>
